X: 64
T:Trumpet
% Nottingham Music Database
S:Captain Pugwash
M:4/4
L:1/8
R:Hornpipe
K:G
D2/3E2/3F2/3|"G"G2/3G2/3G2/3G2 G2/3G2/3G2/3G2|"G"BGBd gdBG|"D7"D2/3D2/3D2/3D2 D2/3D2/3D2/3D2|"D7"FDFA dAFD|
"G"G2/3G2/3G2/3G2 G2/3G2/3G2/3G2|"G"BGBd g2ag|"D"fafd "A7"ege^c|"D"d2d2 "D7"d2 c2|
"G"d2/3d2/3d2/3d2 d2/3d2/3d2/3d2|"C"efgf edcB|"Am"cded cBAG|"D7"FGAG FDEF|
"G"G2/3G2/3G2/3G2 "G7"G2/3G2/3G2/3G2|"C"G2/3G2/3G2/3G2 "Cm"G2/3G2/3G2/3G2|"D7"F2fe dcBA|"G"G2g2 G2||


